svg/current_dc.svg

<svg width="24" height="24" viewBox="0 0 24 24" xmlns="http://www.w3.org/2000/svg"><path d="M2 2v2h20V2H2zm0 4v2h5V6H2zm7 0v2h6V6H9zm8 0v2h5V6h-5zm-2.2 16.1l-.8-2.6h-4l-.8 2.6H6.7L10.6 11h2.9l3.9 11.1h-2.6zm-1.3-4.6c-.068 0-1.5-4.8-1.5-4.8l-1.4 4.8h2.9z"/></svg>

<svg width="24" height="24" viewBox="0 0 24 24" xmlns="http://www.w3.org/2000/svg">
<path d="M2 2V4H22V2H2ZM2 6V8H7V6H2ZM9 6V8H15V6H9ZM17 6V8H22V6H17ZM14.8 22.1L14 19.5H10L9.2 22.1H6.7L10.6 11H13.5L17.4 22.1H14.8ZM13.5 17.5C13.4324 17.5 12 12.7 12 12.7L10.6 17.5H13.5Z"/>
</svg>
